app/dist/common/images/watts-water-technologies.svg

<svg height="18" width="18" xmlns="http://www.w3.org/2000/svg"><path d="m0 0h18v18h-18z" fill="#f0f3fa"/><path d="m6.066 7.587.245-2.583 3.375 3.502-.607 4.494zm4.544.035.39-2.622 2.946 3.494-.561 4.505-2.774-5.377z" fill="#b7b8bc"/><path d="m5.387 5.004h-3.383l3.691 7.995h3.383l-3.69-7.995zm4.614 0h-3.69l3.689 7.995h3.384l-3.384-7.995zm3.999-.004h-3l3 7z" fill="#0070ba"/></svg>

<!-- by TradingView --><svg width="18" height="18" xmlns="http://www.w3.org/2000/svg"><path fill="#F0F3FA" d="M0 0h18v18H0z"/><path d="M6.066 7.587l.245-2.583 3.375 3.502L9.079 13 6.066 7.587zM10.61 7.622L11 5l2.946 3.494-.561 4.505-2.774-5.377z" fill="#B7B8BC"/><path d="M5.387 5.004H2.004l3.691 7.995h3.383l-3.69-7.995zM10.001 5.004h-3.69L10 12.999h3.384L10 5.004zM14 5h-3l3 7V5z" fill="#0070BA"/></svg>
